X: 2248
T: Babbity Bowster
R: jig
M: 6/8
K: Gmajor
|:B|c3 B3|ABG F2D|G2G BAB|G2G BAB|
c3B3|ABA fef|g2d edc|B3G2:|
|:B|cde gdB|ABG FED|G2d B/c/dB|G2d B/c/dB|
cde gdB|ABA fef|g2d edc|B3G2:|
|:B|cAc BGB|ABG FED|GAG BAB|GAG BAB|
[1cAc BGB|ABG FED|g2d edc|B3G2:|
[2cac BgB|Aag fef|g2d edc|B3G2||

